X: 41808
T: Victoria's
R: jig
M: 6/8
K: Dminor
D2D DEF|E2D DEF|ADD GDF|DFF FEF|
D2D DEF|E2D DEF|BDD ADD|GDF FEF|
D2D DEF|E2D DEF|ADD GDF|DFF FEF|
FEE EGG|GFF FBB|BAA Add|d^cc c3:|
[K:D]|:f3 fed|e2d B2A|B2d- dBA|B2d- dBA|
f3 fed|e2d B2A|B2d- dBA|f2e- ede|
f3 fed|e2d B2A|B2d- dBA|B2d- dBA|
=f2f fed|e2d e2f|a3 afe|afe afe:|

